X: 42886
T: Will The Barber
R: jig
M: 6/8
K: Dmajor
|:fgf edc|d2A d2e|fgf edc|1 d3 d2e:|2 d3 d3||
dcd B3|e2d cBA|dcd B3|edc d3:|
a2f a2f|efg fed|a2f a2f|gfe d3:|
B2d A2d|efg fed|B2d A2d|1 edc d3:|2 edc d2e||

